lib/svgs/circle-chevron-up-o.svg

<svg xmlns="http://www.w3.org/2000/svg" viewBox="0 0 20 20">
    <path fill="#000" fill-rule="evenodd" d="M10,18 C14.418,18 18,14.418 18,10 C18,5.582 14.418,2 10,2 C5.582,2 2,5.582 2,10 C2,14.418 5.582,18 10,18 L10,18 L10,18 Z M10,16.8 C6.25,16.8 3.2,13.75 3.2,10 C3.2,6.25 6.25,3.2 10,3.2 C13.75,3.2 16.8,6.25 16.8,10 C16.8,13.75 13.75,16.8 10,16.8 L10,16.8 L10,16.8 Z M9.9999,7.3989 C10.1589,7.3989 10.3119,7.4619 10.4239,7.5749 L12.8259,9.9759 C13.0599,10.2109 13.0599,10.5899 12.8259,10.8249 C12.5909,11.0589 12.2109,11.0589 11.9769,10.8249 L9.9999,8.8479 L8.0229,10.8249 C7.7889,11.0579 7.4089,11.0589 7.1749,10.8249 C6.9399,10.5899 6.9399,10.2109 7.1749,9.9759 L9.5759,7.5749 C9.6879,7.4619 9.8409,7.3989 9.9999,7.3989 L9.9999,7.3989 L9.9999,7.3989 Z"/>
</svg>

<svg xmlns="http://www.w3.org/2000/svg" viewBox="0 0 20 20">
    <path fill="#000" fill-rule="evenodd" d="M10 18a8 8 0 1 0 0-16 8 8 0 0 0 0 16m0-1.2c-3.75 0-6.8-3.05-6.8-6.8S6.25 3.2 10 3.2s6.8 3.05 6.8 6.8-3.05 6.8-6.8 6.8m0-9.401c.159 0 .312.063.424.176l2.402 2.4a.601.601 0 0 1-.85.85L10 8.848l-1.977 1.977a.6.6 0 0 1-.848-.85l2.4-2.4A.597.597 0 0 1 10 7.399"/>
</svg>
